X:1
T:Avondstemming Sopraan
T:Avondstemming Bas
T:Pfeil
T:Alice Nahon
C:Pfeil
Z:Alice Nahon
L:1/8
M:3/4
K:Bb
V:1 bass nm="Piano" snm="Pno."
V:1
 F,2 D,2 E,2 | F,3 F, F,F, | F,2 F,2 z F, | F,>F, F,F, F,A,, | B,,2 z F, D,E, | B,,3 B,, B,,B,, | %6
w: 'tIs goed in|'tei- gen hart te|kij- ken, nog|e- ven voor het sla- pen-|gaan, of ik van|da- ge- raad tot|
w: of ik geen|o- gen heb doen|schrei- en, geen|wee- moed op een we- zen|lei, of ik aan|lief- de- lo- ze|
w: en voel ik|in het huis mijns|har- ten, dat|ik een droe- fe- nis ge-|nas, dat ik mijn|ar- men heb ge-|
w: dan voel ik|op mijn jon- ge|lip- pen, die|goed- heid lijk een a- vond-|zoen, 'tis goed in|ei- gen hart te|
 E,2 E,E, E,E, | F,3 F, F,F, | G,2 z G, G,G, | E,3 E, F,B,, | B,,3 z z2 |] %11
w: a- vond geen en- kel|hart heb zeer ge-|daan, geen en- kel|hart heb zeer ge-|daan|
w: men- sen een woor- de-|ke van lief- de|zei, een woor- de-|ke van lief- de|zei|
w: won- den rond- om een|hoofd dat een- zaam|was, rond- om een|hoofd dat een- zaam|was|
w: kij- ken en zo zijn|o- gen toe te|doen, en zo zijn|o- gen toe te|doen|

